X:45
T:Nativity
C:Peter Cape
M:4/4              
L:1/4            
Q: 120           
K:E
E3/4F/4 | G G3/4A/4 | G F3/4E/4 | A c B B/2B/2 |
W:They    were       set    for        the       home  but         the     horse went lame And the 
e B B G | A/2A/2 G F z | G G3/4A/4 G F/2E/2 |  
W:rain came pel - ting        out     of     the  sky.                  Joe  saw          the    hut   and   he
A c B z/E/4E/4|E F G F/2E/2 | F/4(D3/4D) E z||
W:went to   look       And   he          said&quot;She's old but she'll       keep    you               dry.&quot;
